X: 39544
T: Taylor's Quickstep
R: polka
M: 2/4
K: Amixolydian
|:ABcd efge|G2BG dGBG|ABcd eaba|gfgB BAA2:|
|:geef gee2|d2fd adfd|edef gfed|BAGB BAA2:|

